X:2360
T:Green Fields of Glentown, The
O:england
C:Tommy Peoples
R:reel
D:Sharon Shannon 1.
D:Donal Lunny: Live at the National Concert Hall.
M:C|
K:Ador
EA,~A,2 E2DB,|G,B,~B,2 G,A,B,D|EA,~A,2 E2DE|GBeB dBAB|
eB~B2 eBdB|AE~E2 DG,B,G,|A,E~E2 E2DE|GEDB, B,A,~A,2:|
|:A2EA cAEA|G2DB, G,A,B,D|EA~A2 GABd|edBA aged|
bg~g2 afge|dB~B2 GEDB,|A,E~E2 E2DE|GEDB, B,A,~A,2:|
|:A2EA cAEA|aged bage|dG~G2 DGBd|gded Bdgd|
e2Be eBdB|AE~E2 DG,B,G,|A,E~E2 E2DE|GEDB, B,A,~A,2:|
